X: 81
T: No_8_Kasewat,_Matted_Hair_or_Wig_Song.krn
N: Derived from No_8_Kasewat,_Matted_Hair_or_Wig_Song.krn
%%abc-version 2.0
%%abcx-abcm2ps-target-version 5.9.1 (29 Sep 2008)
%%abc-creator hum2abc beta
%%abcx-conversion-date 2019/03/15 08:25:36
%%humdrum-veritas 1064856870
%%humdrum-veritas-data 1222483270
%%linebreak <none>
%%barnumbers 0
L: 1/8
M: 2/4
K: Bb clef=bass
[K:clef=bass][M:2/4]z2z G, | 
F,F, F,G, | 
F,F, F,F, | 
[M:3/4]CC DD CB, | 
[M:7/8]G,G,G,G,F,G,G, | 
[M:2/4]CC B,G, | 
[M:3/4]G,G, G,G,z2 | 
[M:2/4]G,B, G,B, | 
G,G,!fermata!F,2 | 
F,F, F,F, | 
G,F, F,F, | 
[M:5/8]F,F,F, z F, | 
[M:3/4]CC DD CB, | 
[M:7/8]G,G,G,G,F,G,G, | 
[M:2/4]CC B,F, | 
G,G, G, z | 
[M:3/4]F,G, C/CB,/ F,G, | 
F,G, C/CB,/ F,G, | 
[M:2/4]F,G, F,G, | 
[M:3/4]F,//F,3//G, F,//F,3//G, F,G, | 
F,F, F,F, F,F, | 
F,F, F,F, F, z | 
[M:2/4]F2F2 | 
[M:3/4]FF CC/G,/ G,B, | 
[M:2/4]B,3/B,/G,2 | 
G,2G,2 | 
[M:3/4]B,D DD D/B,/B, | 
[M:2/4]F,G, B,/F,/F, | 
[M:3/4]F,/F,3/ F,F, z3/ D/ | 
[M:2/4](3:2:8D/B,/B,D D/B,/B,G, | 
B,2C/B,3/ | 
G,3/F,/ G,3/A,/ | 
[M:3/4]G,G, G,G, F,/F,/ z | 
F,F, G,F,3//F,//F,2 | 
[M:2/4]G,F, G,F,3//F,// | 
F,F, F, z |]  



